!!!PDT:	1923
!!!LANG: Non-Tone
!!!LING_GROUP: Siouan
!!!REG: Dakotas
!!!COM: Anon.
!!!OTL: Wake Up
!!!ODT: <1918//
!!!MPN: Marolipa [Buffalo Bull Head, Ben Benson]
!!!MLC: Fort Berthold Reservation, North Dakota, United States of America
!! Song was recorded during either the summer of 1912, 1915, or 1918.
!!!AGN: monody
!!!SOCIAL_FUNCTION: Mandan and Hidatsa Men's Fox Society
!!!AMT: irregular
!!!RWG: Transcribed pitches, durations, and meters are only approximate.
!! Drum Tempo: MM88
!! Drum-rhythm (approximate): (12^ 12r 12) (12^ 12r 12) (12^ 12r 12) (12^ 12 12)
**kern
*ICvox
*Imale
*clefG2
*k[b-]
*M2/4
*MM88
=1-
8.f
16a
(12a
12f
12a)
=2
16f
8.f
(12f
12d
12f)
=3
16d
8.d
4d
*M3/4
=4
16f
8.d
4f
(12f
12d)
12f
=5
8.d
16c
16A
8.A
4A
*M2/4
=6
(12A
12A
12d)
(12d
12c
12A)
=7
8.c
16c
(12c
12A
12A)
=8
16F
8.F
4F
=9
4F
4F
==
*-
!!!CNT: Mandan
!!!TXO: Mandan
!!!OCY: United States
!!!OCL: Frances Densmore
!!!YOR: Frances Densmore, "Mandan and Hidatsa Music",
!!!YOR: Bulletin 80, page 127, No. 58
!!!PPR: Smithsonian Institution, Bureau of American Ethnology
!!!PPR: Government Printing Office
!!!PDT: 1923
!!!PPP: Washington, DC, United States of America
!!!YEC: Electronic Copyright 2000 David Huron
!!!YER: August 2000
!!!YEN: United States of America
!!!ENC: David Huron
!!!RDT: August 17, 2000
!!!EEV: Release 1.0
!!!AIN: tom, vox
